assets/illustrations/default/management.svg

<svg xmlns="http://www.w3.org/2000/svg" width="1080" height="1080" fill="none"><path fill="#1968F0" d="M867.484 798.315c116.904 0 211.676-94.77 211.676-211.675s-94.772-211.675-211.676-211.675c-116.905 0-211.675 94.77-211.675 211.675s94.77 211.675 211.675 211.675"/><path fill="url(#a)" d="M167.072 200h776.881c7.619 0 13.853 6.234 13.853 13.853v495.109c0 7.62-6.234 13.854-13.853 13.854H167.072c-7.619 0-13.853-6.234-13.853-13.854V213.853c0-7.619 6.234-13.853 13.853-13.853"/><path fill="#1968F0" fill-rule="evenodd" d="M924.974 272.983H186.051v-3h738.923zM236.06 233.501a9.305 9.305 0 0 0-9.305 9.306 9.305 9.305 0 0 0 9.305 9.305 9.305 9.305 0 0 0 9.306-9.305 9.305 9.305 0 0 0-9.306-9.306m-12.305 9.306c0-6.797 5.509-12.306 12.305-12.306s12.306 5.509 12.306 12.306-5.51 12.305-12.306 12.305-12.305-5.509-12.305-12.305M273.325 233.501a9.305 9.305 0 0 0-9.305 9.306 9.305 9.305 0 0 0 9.305 9.305 9.306 9.306 0 0 0 0-18.611m-12.305 9.306c0-6.796 5.509-12.306 12.305-12.306s12.306 5.509 12.306 12.306-5.51 12.305-12.306 12.305-12.305-5.509-12.305-12.305M212.186 232.508l-22.581 22.58-2.121-2.122 22.58-22.58z" clip-rule="evenodd"/><path fill="#1968F0" fill-rule="evenodd" d="m210.064 255.088-22.58-22.58 2.121-2.122 22.581 22.58z" clip-rule="evenodd"/><path fill="#072F73" d="M868.315 670.451H641.679c-6.096 0-11.083-4.987-11.083-11.082v-53.474c0-6.095 4.987-11.082 11.083-11.082h226.636c6.095 0 11.082 4.987 11.082 11.082v53.474c0 6.095-4.987 11.082-11.082 11.082"/><path stroke="#fff" stroke-miterlimit="10" stroke-width="3" d="M660.241 632.633h190.064"/><path fill="#35DE90" d="M991.33 545.081H690.718c-7.619 0-13.853-6.234-13.853-13.853V342.133c0-7.619 6.234-13.853 13.853-13.853H991.33c7.619 0 13.85 6.234 13.85 13.853v189.095c0 7.619-6.231 13.853-13.85 13.853"/><path fill="#0096FA" d="M439.424 604.649h-23.551c-3.879 0-6.926 3.048-6.926 6.927v58.875h37.403v-58.875c0-3.879-3.048-6.927-6.926-6.927"/><path fill="#35DE90" d="M557.036 574.172h-23.55c-3.879 0-6.927 3.048-6.927 6.927v89.213h37.403v-89.213c0-3.74-3.047-6.927-6.926-6.927"/><path stroke="#1968F0" stroke-miterlimit="10" stroke-width="3" d="M392.6 670.451h187.571"/><path fill="#1968F0" d="M498.299 527.21h-23.55c-3.879 0-6.927 3.048-6.927 6.926v136.176h37.404V534.136c0-3.74-3.187-6.926-6.927-6.926"/><path fill="#072F73" d="M1039.68 445.199c19.05 0 34.49-15.442 34.49-34.493s-15.44-34.495-34.49-34.495-34.5 15.444-34.5 34.495 15.45 34.493 34.5 34.493"/><path fill="#0096FA" d="M643.895 782.384c34.046 0 61.646-27.6 61.646-61.646s-27.6-61.647-61.646-61.647-61.646 27.6-61.646 61.647 27.599 61.646 61.646 61.646M777.439 650.502c9.869 0 17.87-8 17.87-17.869s-8.001-17.871-17.87-17.871-17.871 8.001-17.871 17.871 8.001 17.869 17.871 17.869"/><path stroke="#fff" stroke-miterlimit="10" stroke-width="2" d="M975.953 356.817h-269.72v159.865h269.72z"/><path fill="#fff" fill-rule="evenodd" d="M840.023 516.682V356.817h2v159.865zM772.698 516.682V356.817h2v159.865zM907.488 516.682V356.817h2v159.865z" clip-rule="evenodd"/><path fill="#fff" fill-rule="evenodd" d="M706.233 435.75h269.581v2H706.233zM706.233 395.714h269.581v2H706.233zM706.233 475.646h269.581v2H706.233z" clip-rule="evenodd"/><path fill="#0096FA" fill-rule="evenodd" d="M863.168 461.859c-5.635 9.573-12.644 16.787-22.006 16.787-9.877 0-17.314-2.606-23.362-6.56-5.997-3.918-10.55-9.115-14.711-14.108q-.635-.761-1.257-1.512c-7.895-9.518-14.695-17.716-28.134-17.716-6.313 0-13.902 4.499-21.981 11.959-7.978 7.364-16.036 17.236-23.259 27.182-7.213 9.933-13.546 19.875-18.078 27.34a416 416 0 0 0-5.323 9.011 258 258 0 0 0-1.796 3.179l-.092.168-.023.041-.007.012-1.754-.96-1.754-.962.034-.06.096-.176.377-.676c.331-.591.818-1.456 1.448-2.555 1.26-2.198 3.09-5.335 5.375-9.098 4.568-7.523 10.962-17.564 18.261-27.614 7.288-10.037 15.525-20.149 23.781-27.772 8.155-7.528 16.739-13.019 24.695-13.019 15.371 0 23.329 9.624 31.023 18.93q.72.872 1.44 1.737c4.151 4.982 8.377 9.759 13.827 13.321 5.397 3.528 12.073 5.908 21.174 5.908 7.055 0 13.033-5.427 18.559-14.816 5.468-9.29 10.074-21.745 14.643-34.426l.812-2.256c4.259-11.841 8.529-23.711 13.436-32.78 2.614-4.83 5.475-8.998 8.717-11.977 3.267-3.002 7.01-4.872 11.298-4.872 7.703 0 12.849 4.445 16.895 10.449 2.87 4.26 5.366 9.59 7.916 15.036.976 2.083 1.96 4.183 2.975 6.247 3.743 7.606 8.016 14.966 14.161 20.437 6.079 5.412 14.09 9.062 25.517 9.062v4c-12.4 0-21.359-4.005-28.176-10.074-6.751-6.01-11.301-13.957-15.091-21.659-1.109-2.255-2.147-4.471-3.152-6.616-2.492-5.323-4.782-10.212-7.468-14.197-3.689-5.477-7.773-8.685-13.577-8.685-3.02 0-5.84 1.289-8.591 3.818-2.777 2.551-5.389 6.284-7.906 10.935-4.757 8.791-8.93 20.389-13.231 32.344l-.772 2.144c-4.54 12.601-9.267 25.428-14.959 35.099" clip-rule="evenodd"/><path fill="url(#b)" d="M607.184 502.69 18.152 436.888c-7.62-.831-13.022-7.758-12.191-15.238l12.19-109.023c.832-7.619 7.758-13.023 15.239-12.192l589.033 65.802c7.619.832 13.022 7.758 12.19 15.239L622.423 490.5c-.693 7.619-7.62 13.16-15.239 12.19"/><path fill="#FCAA73" d="m483.892 395.052 29.646-42.529-27.153-17.039-25.073 41.975z"/><path fill="#FCAA73" d="m467.546 369.424-2.078-27.291 4.294-.832 6.096 15.931zM125.374 354.046l-19.948-47.931 30.061-10.944 15.516 46.408z"/><path fill="#FCAA73" d="m146.708 332.297 7.896-26.044-4.017-1.8-9.42 14.13z"/><path fill="#072F73" d="m299.646 836.411 52.919.277c.693 3.186 2.909 14.823 15.515 15.654 23.828 1.524 14.13 13.022 14.13 13.022h-87.135z"/><path fill="#35DE90" d="M238 392.974c16.066 0 29.091-13.024 29.091-29.091S254.066 334.792 238 334.792s-29.092 13.024-29.092 29.091 13.025 29.091 29.092 29.091M362.4 412.091c16.067 0 29.092-13.024 29.092-29.091s-13.025-29.092-29.092-29.092-29.091 13.025-29.091 29.092 13.024 29.091 29.091 29.091M422.107 488.144c16.067 0 29.092-13.025 29.092-29.091s-13.025-29.092-29.092-29.092-29.091 13.025-29.091 29.092c0 16.066 13.024 29.091 29.091 29.091"/><path fill="#35DE90" d="m399.797 476.954 45.577-35.947-60.398-76.578-45.577 35.947z"/><path fill="#35DE90" d="m501.381 400.642-46.668-34.519-56.68 76.629 46.668 34.518zM341.067 523.193l-122.739-27.845 22.165-160.141 130.635 19.809zM166.518 459.745c16.066 0 29.091-13.025 29.091-29.091s-13.025-29.092-29.091-29.092-29.092 13.025-29.092 29.092c0 16.066 13.025 29.091 29.092 29.091"/><path fill="#35DE90" d="m258.168 385.013-39.563-42.471-71.359 66.473 39.563 42.471z"/><path fill="#35DE90" d="m105.703 350.998 54.719-19.67 34.356 92.123-54.72 19.67z"/><path fill="#FCAA73" d="m348.409 258.322-46.962-5.541-4.017 3.186-10.252 86.444 34.495 5.264 1.523-13.438 15.793 1.94c1.524-1.247 2.493-1.941 4.017-3.188l8.312-70.511z"/><path fill="#000" d="m289.118 326.48 19.394 1.938 20.364-9.697 23.827-59.013-54.719-7.897z"/><path fill="#000" d="m295.906 268.435 59.152 7.619c1.801.277 3.464-.554 4.295-2.078l8.312-14.268c1.524-2.771-.139-6.096-3.187-6.512l-65.525-8.311z"/><path fill="#FCAA73" d="m344.115 315.258-12.052-1.523c-2.909-.416-5.126-3.049-4.711-6.096l1.386-10.667 17.455 2.217z"/><path fill="#FCAA73" d="m347.439 293.925 4.572 20.64-8.728.555z"/><path fill="url(#c)" d="m297.152 687.906-11.775-144.21-74.945 6.094 11.221 137.7-45.854 130.219 70.928 24.936 48.486-137.838c1.939-5.68 2.494-11.36 1.939-16.901"/><path fill="#1968F0" d="M329.845 728.911c20.734 0 37.542-16.808 37.542-37.542s-16.808-37.541-37.542-37.541c-20.733 0-37.541 16.807-37.541 37.541s16.808 37.542 37.541 37.542"/><path fill="#1968F0" d="M367.526 691.369h-75.222v146.15h75.222zM366.418 682.642l-74.114 8.727-42.529-147.813h80.071z"/><path fill="#1968F0" d="M334.278 567.246 210.293 549.79l8.035-54.442 123.708 22.997z"/><mask id="d" width="58" height="36" x="220" y="841" maskUnits="userSpaceOnUse" style="mask-type:luminance"><path fill="#fff" d="M237.169 841.121 220.406 877l57.491-4.849-14.269-24.935z"/></mask><g mask="url(#d)"><path fill="#072F73" d="m172.89 836.411 52.919.277c.693 3.186 2.909 14.823 15.515 15.654 23.828 1.524 14.131 13.022 14.131 13.022h-87.136z"/></g><path fill="#072F73" d="M237.307 854.558c-7.204-5.541-5.818-14.684-5.541-17.455l-49.871-17.593-13.715 25.767 57.906 20.087z"/><path fill="url(#e)" d="m229.965 411.121 5.68-40.728-45.023 77.439z"/><defs><linearGradient id="a" x1="69.424" x2="1014.41" y1="65.51" y2="835.103" gradientUnits="userSpaceOnUse"><stop stop-color="#fff"/><stop offset=".144" stop-color="#E3EDFD"/><stop offset=".292" stop-color="#CDDEFC"/><stop offset=".387" stop-color="#C5D9FB"/><stop offset=".614" stop-color="#C3D8FB"/><stop offset=".703" stop-color="#BCD3FA"/><stop offset=".768" stop-color="#B0CBFA"/><stop offset=".821" stop-color="#9FC0F9"/><stop offset=".867" stop-color="#88B1F7"/><stop offset=".908" stop-color="#6C9FF5"/><stop offset=".945" stop-color="#4B89F3"/><stop offset=".978" stop-color="#2671F1"/><stop offset=".989" stop-color="#1968F0"/></linearGradient><linearGradient id="b" x1="116.831" x2="526.436" y1="193.706" y2="612.157" gradientUnits="userSpaceOnUse"><stop stop-color="#0096FA"/><stop offset=".396" stop-color="#0193F9"/><stop offset=".631" stop-color="#068BF8"/><stop offset=".824" stop-color="#0E7DF5"/><stop offset=".993" stop-color="#1869F0"/><stop offset="1" stop-color="#1968F0"/></linearGradient><linearGradient id="c" x1="187.766" x2="376.241" y1="702.492" y2="673.242" gradientUnits="userSpaceOnUse"><stop offset=".307" stop-color="#1968F0"/><stop offset=".691" stop-color="#0C4EC0"/></linearGradient><linearGradient id="e" x1="193.319" x2="254.667" y1="396.678" y2="435.076" gradientUnits="userSpaceOnUse"><stop offset=".324" stop-color="#35DE90"/><stop offset=".385" stop-color="#32D48E"/><stop offset=".488" stop-color="#2BB98A"/><stop offset=".622" stop-color="#208D83"/><stop offset=".78" stop-color="#105078"/><stop offset=".859" stop-color="#072F73"/></linearGradient></defs></svg>

<svg width="1080" height="1080" viewBox="0 0 1080 1080" fill="none" xmlns="http://www.w3.org/2000/svg">
<path d="M867.484 798.315C984.389 798.315 1079.16 703.545 1079.16 586.64C1079.16 469.735 984.389 374.965 867.484 374.965C750.579 374.965 655.809 469.735 655.809 586.64C655.809 703.545 750.579 798.315 867.484 798.315Z" fill="#1968F0"/>
<path d="M167.072 200H943.953C951.572 200 957.806 206.234 957.806 213.853V708.962C957.806 716.582 951.572 722.816 943.953 722.816H167.072C159.453 722.816 153.219 716.582 153.219 708.962V213.853C153.219 206.234 159.453 200 167.072 200Z" fill="url(#paint0_linear_10272_1586)"/>
<path fill-rule="evenodd" clip-rule="evenodd" d="M924.974 272.983H186.051V269.983H924.974V272.983Z" fill="#1968F0"/>
<path fill-rule="evenodd" clip-rule="evenodd" d="M236.061 233.501C230.921 233.501 226.755 237.667 226.755 242.807C226.755 247.946 230.921 252.112 236.061 252.112C241.2 252.112 245.366 247.946 245.366 242.807C245.366 237.667 241.2 233.501 236.061 233.501ZM223.755 242.807C223.755 236.01 229.265 230.501 236.061 230.501C242.857 230.501 248.366 236.01 248.366 242.807C248.366 249.603 242.857 255.112 236.061 255.112C229.265 255.112 223.755 249.603 223.755 242.807Z" fill="#1968F0"/>
<path fill-rule="evenodd" clip-rule="evenodd" d="M273.325 233.501C268.186 233.501 264.02 237.667 264.02 242.807C264.02 247.946 268.186 252.112 273.325 252.112C278.464 252.112 282.631 247.946 282.631 242.807C282.631 237.667 278.464 233.501 273.325 233.501ZM261.02 242.807C261.02 236.011 266.529 230.501 273.325 230.501C280.121 230.501 285.631 236.01 285.631 242.807C285.631 249.603 280.121 255.112 273.325 255.112C266.529 255.112 261.02 249.603 261.02 242.807Z" fill="#1968F0"/>
<path fill-rule="evenodd" clip-rule="evenodd" d="M212.186 232.508L189.605 255.088L187.484 252.966L210.064 230.386L212.186 232.508Z" fill="#1968F0"/>
<path fill-rule="evenodd" clip-rule="evenodd" d="M210.064 255.088L187.484 232.508L189.605 230.386L212.186 252.966L210.064 255.088Z" fill="#1968F0"/>
<path d="M868.315 670.451H641.679C635.583 670.451 630.596 665.464 630.596 659.369V605.895C630.596 599.8 635.583 594.813 641.679 594.813H868.315C874.41 594.813 879.397 599.8 879.397 605.895V659.369C879.397 665.464 874.41 670.451 868.315 670.451Z" fill="#072F73"/>
<path d="M660.242 632.633H850.306" stroke="white" stroke-width="3" stroke-miterlimit="10"/>
<path d="M991.33 545.081H690.718C683.099 545.081 676.865 538.847 676.865 531.228V342.133C676.865 334.514 683.099 328.28 690.718 328.28H991.33C998.949 328.28 1005.18 334.514 1005.18 342.133V531.228C1005.18 538.847 998.949 545.081 991.33 545.081Z" fill="#35DE90"/>
<path d="M439.424 604.649H415.874C411.995 604.649 408.947 607.697 408.947 611.576V670.451H446.35V611.576C446.35 607.697 443.303 604.649 439.424 604.649Z" fill="#0096FA"/>
<path d="M557.036 574.172H533.486C529.607 574.172 526.56 577.22 526.56 581.099V670.312H563.963V581.099C563.963 577.359 560.915 574.172 557.036 574.172Z" fill="#35DE90"/>
<path d="M392.601 670.451H580.171" stroke="#1968F0" stroke-width="3" stroke-miterlimit="10"/>
<path d="M498.3 527.21H474.749C470.87 527.21 467.823 530.258 467.823 534.136V670.312H505.226V534.136C505.226 530.396 502.04 527.21 498.3 527.21Z" fill="#1968F0"/>
<path d="M1039.68 445.199C1058.73 445.199 1074.17 429.757 1074.17 410.706C1074.17 391.655 1058.73 376.211 1039.68 376.211C1020.63 376.211 1005.18 391.655 1005.18 410.706C1005.18 429.757 1020.63 445.199 1039.68 445.199Z" fill="#072F73"/>
<path d="M643.895 782.384C677.941 782.384 705.541 754.784 705.541 720.738C705.541 686.691 677.941 659.091 643.895 659.091C609.849 659.091 582.249 686.691 582.249 720.738C582.249 754.784 609.849 782.384 643.895 782.384Z" fill="#0096FA"/>
<path d="M777.439 650.502C787.308 650.502 795.309 642.502 795.309 632.633C795.309 622.763 787.308 614.762 777.439 614.762C767.569 614.762 759.568 622.763 759.568 632.633C759.568 642.502 767.569 650.502 777.439 650.502Z" fill="#0096FA"/>
<path d="M975.953 356.817H706.234V516.682H975.953V356.817Z" stroke="white" stroke-width="2" stroke-miterlimit="10"/>
<path fill-rule="evenodd" clip-rule="evenodd" d="M840.024 516.682V356.817H842.024V516.682H840.024Z" fill="white"/>
<path fill-rule="evenodd" clip-rule="evenodd" d="M772.698 516.682V356.817H774.698V516.682H772.698Z" fill="white"/>
<path fill-rule="evenodd" clip-rule="evenodd" d="M907.489 516.682V356.817H909.489V516.682H907.489Z" fill="white"/>
<path fill-rule="evenodd" clip-rule="evenodd" d="M706.234 435.75H975.815V437.75H706.234V435.75Z" fill="white"/>
<path fill-rule="evenodd" clip-rule="evenodd" d="M706.234 395.714H975.815V397.714H706.234V395.714Z" fill="white"/>
<path fill-rule="evenodd" clip-rule="evenodd" d="M706.234 475.646H975.815V477.646H706.234V475.646Z" fill="white"/>
<path fill-rule="evenodd" clip-rule="evenodd" d="M863.168 461.859C857.534 471.432 850.524 478.646 841.163 478.646C831.285 478.646 823.849 476.04 817.8 472.086C811.804 468.168 807.25 462.971 803.089 457.978C802.666 457.471 802.248 456.966 801.832 456.466C793.937 446.948 787.137 438.75 773.699 438.75C767.386 438.75 759.797 443.249 751.717 450.709C743.74 458.073 735.681 467.945 728.459 477.891C721.246 487.824 714.913 497.766 710.381 505.231C708.116 508.961 706.303 512.069 705.057 514.242C704.434 515.328 703.954 516.181 703.629 516.761C703.467 517.051 703.344 517.273 703.262 517.421L703.169 517.589L703.146 517.63L703.14 517.642C703.139 517.643 703.139 517.643 701.385 516.682C699.631 515.721 699.631 515.721 699.632 515.72L699.665 515.66L699.762 515.484C699.847 515.33 699.973 515.103 700.139 514.808C700.469 514.217 700.957 513.352 701.587 512.253C702.847 510.055 704.677 506.918 706.962 503.155C711.529 495.632 717.924 485.591 725.222 475.541C732.511 465.504 740.747 455.392 749.004 447.769C757.158 440.241 765.743 434.75 773.699 434.75C789.069 434.75 797.027 444.374 804.722 453.68C805.202 454.261 805.682 454.841 806.162 455.417C810.313 460.399 814.538 465.176 819.988 468.738C825.386 472.266 832.062 474.646 841.163 474.646C848.218 474.646 854.195 469.219 859.721 459.83C865.189 450.54 869.796 438.085 874.364 425.404C874.635 424.653 874.906 423.9 875.176 423.148C879.436 411.307 883.706 399.437 888.613 390.368C891.226 385.538 894.088 381.37 897.33 378.391C900.597 375.389 904.339 373.519 908.627 373.519C916.33 373.519 921.476 377.964 925.522 383.968C928.393 388.228 930.889 393.558 933.439 399.004C934.415 401.087 935.398 403.187 936.414 405.251C940.156 412.857 944.429 420.217 950.575 425.688C956.654 431.1 964.665 434.75 976.092 434.75V438.75C963.692 438.75 954.732 434.745 947.915 428.676C941.165 422.666 936.615 414.719 932.825 407.017C931.715 404.762 930.677 402.546 929.673 400.401C927.18 395.078 924.89 390.189 922.205 386.204C918.515 380.727 914.431 377.519 908.627 377.519C905.608 377.519 902.788 378.808 900.036 381.337C897.26 383.888 894.647 387.621 892.131 392.272C887.374 401.063 883.201 412.661 878.899 424.616C878.643 425.33 878.385 426.045 878.127 426.76C873.588 439.361 868.861 452.188 863.168 461.859Z" fill="#0096FA"/>
<path d="M607.184 502.69L18.1518 436.888C10.5326 436.057 5.12987 429.13 5.96106 421.65L18.1518 312.627C18.983 305.008 25.9096 299.604 33.3902 300.435L622.423 366.237C630.042 367.069 635.445 373.995 634.614 381.476L622.423 490.5C621.73 498.119 614.804 503.66 607.184 502.69Z" fill="url(#paint1_linear_10272_1586)"/>
<path d="M483.892 395.052L513.538 352.523L486.385 335.484L461.312 377.459L483.892 395.052Z" fill="#FCAA73"/>
<path d="M467.545 369.424L465.468 342.133L469.762 341.301L475.857 357.232L467.545 369.424Z" fill="#FCAA73"/>
<path d="M125.374 354.046L105.426 306.115L135.487 295.171L151.003 341.579L125.374 354.046Z" fill="#FCAA73"/>
<path d="M146.708 332.297L154.604 306.253L150.587 304.453L141.167 318.583L146.708 332.297Z" fill="#FCAA73"/>
<path d="M299.646 836.411L352.565 836.688C353.258 839.874 355.474 851.511 368.08 852.342C391.908 853.866 382.21 865.364 382.21 865.364H295.075L299.646 836.411Z" fill="#072F73"/>
<path d="M238 392.974C254.066 392.974 267.091 379.95 267.091 363.883C267.091 347.816 254.066 334.792 238 334.792C221.933 334.792 208.908 347.816 208.908 363.883C208.908 379.95 221.933 392.974 238 392.974Z" fill="#35DE90"/>
<path d="M362.4 412.091C378.467 412.091 391.492 399.067 391.492 383C391.492 366.933 378.467 353.908 362.4 353.908C346.334 353.908 333.309 366.933 333.309 383C333.309 399.067 346.334 412.091 362.4 412.091Z" fill="#35DE90"/>
<path d="M422.107 488.144C438.174 488.144 451.199 475.119 451.199 459.053C451.199 442.986 438.174 429.961 422.107 429.961C406.041 429.961 393.016 442.986 393.016 459.053C393.016 475.119 406.041 488.144 422.107 488.144Z" fill="#35DE90"/>
<path d="M399.798 476.954L445.374 441.007L384.976 364.429L339.4 400.376L399.798 476.954Z" fill="#35DE90"/>
<path d="M501.381 400.642L454.714 366.123L398.033 442.752L444.701 477.27L501.381 400.642Z" fill="#35DE90"/>
<path d="M341.067 523.193L218.329 495.348L240.494 335.207L371.128 355.016L341.067 523.193Z" fill="#35DE90"/>
<path d="M166.518 459.745C182.585 459.745 195.609 446.72 195.609 430.654C195.609 414.587 182.585 401.562 166.518 401.562C150.451 401.562 137.427 414.587 137.427 430.654C137.427 446.72 150.451 459.745 166.518 459.745Z" fill="#35DE90"/>
<path d="M258.168 385.013L218.605 342.542L147.246 409.015L186.809 451.486L258.168 385.013Z" fill="#35DE90"/>
<path d="M105.703 350.998L160.423 331.328L194.778 423.451L140.059 443.121L105.703 350.998Z" fill="#35DE90"/>
<path d="M348.409 258.322L301.447 252.781L297.43 255.967L287.178 342.411L321.673 347.675L323.196 334.237L338.989 336.177C340.513 334.93 341.482 334.236 343.006 332.989L351.318 262.478L348.409 258.322Z" fill="#FCAA73"/>
<path d="M289.118 326.48L308.512 328.418L328.876 318.721L352.703 259.708L297.984 251.811L289.118 326.48Z" fill="black"/>
<path d="M295.906 268.435L355.058 276.054C356.859 276.331 358.522 275.5 359.353 273.976L367.665 259.708C369.189 256.937 367.526 253.612 364.478 253.196L298.953 244.885L295.906 268.435Z" fill="black"/>
<path d="M344.115 315.258L332.062 313.735C329.153 313.319 326.937 310.686 327.352 307.639L328.738 296.972L346.193 299.189L344.115 315.258Z" fill="#FCAA73"/>
<path d="M347.439 293.925L352.011 314.565L343.283 315.12L347.439 293.925Z" fill="#FCAA73"/>
<path d="M297.153 687.906L285.378 543.696L210.432 549.79L221.653 687.49L175.8 817.709L246.727 842.645L295.213 704.807C297.152 699.127 297.707 693.447 297.153 687.906Z" fill="url(#paint2_linear_10272_1586)"/>
<path d="M329.846 728.911C350.579 728.911 367.388 712.103 367.388 691.369C367.388 670.635 350.579 653.828 329.846 653.828C309.112 653.828 292.304 670.635 292.304 691.369C292.304 712.103 309.112 728.911 329.846 728.911Z" fill="#1968F0"/>
<path d="M367.526 691.369H292.304V837.519H367.526V691.369Z" fill="#1968F0"/>
<path d="M366.418 682.642L292.304 691.369L249.775 543.556H329.846L366.418 682.642Z" fill="#1968F0"/>
<path d="M334.279 567.246L210.294 549.79L218.329 495.348L342.037 518.345L334.279 567.246Z" fill="#1968F0"/>
<mask id="mask0_10272_1586" style="mask-type:luminance" maskUnits="userSpaceOnUse" x="220" y="841" width="58" height="36">
<path d="M237.169 841.121L220.406 877L277.897 872.151L263.628 847.216L237.169 841.121Z" fill="white"/>
</mask>
<g mask="url(#mask0_10272_1586)">
<path d="M172.891 836.411L225.81 836.688C226.502 839.874 228.719 851.511 241.325 852.342C265.152 853.866 255.455 865.364 255.455 865.364H168.319L172.891 836.411Z" fill="#072F73"/>
</g>
<path d="M237.307 854.558C230.104 849.017 231.489 839.874 231.766 837.103L181.895 819.51L168.18 845.277L226.086 865.364L237.307 854.558Z" fill="#072F73"/>
<path d="M229.965 411.121L235.645 370.393L190.623 447.832L229.965 411.121Z" fill="url(#paint3_linear_10272_1586)"/>
<defs>
<linearGradient id="paint0_linear_10272_1586" x1="69.4237" y1="65.5095" x2="1014.41" y2="835.103" gradientUnits="userSpaceOnUse">
<stop stop-color="white"/>
<stop offset="0.1444" stop-color="#E3EDFD"/>
<stop offset="0.2921" stop-color="#CDDEFC"/>
<stop offset="0.387" stop-color="#C5D9FB"/>
<stop offset="0.6138" stop-color="#C3D8FB"/>
<stop offset="0.7029" stop-color="#BCD3FA"/>
<stop offset="0.7678" stop-color="#B0CBFA"/>
<stop offset="0.8209" stop-color="#9FC0F9"/>
<stop offset="0.8668" stop-color="#88B1F7"/>
<stop offset="0.9078" stop-color="#6C9FF5"/>
<stop offset="0.9451" stop-color="#4B89F3"/>
<stop offset="0.9784" stop-color="#2671F1"/>
<stop offset="0.9886" stop-color="#1968F0"/>
</linearGradient>
<linearGradient id="paint1_linear_10272_1586" x1="116.831" y1="193.706" x2="526.436" y2="612.157" gradientUnits="userSpaceOnUse">
<stop stop-color="#0096FA"/>
<stop offset="0.3963" stop-color="#0193F9"/>
<stop offset="0.6312" stop-color="#068BF8"/>
<stop offset="0.8235" stop-color="#0E7DF5"/>
<stop offset="0.9925" stop-color="#1869F0"/>
<stop offset="1" stop-color="#1968F0"/>
</linearGradient>
<linearGradient id="paint2_linear_10272_1586" x1="187.766" y1="702.492" x2="376.241" y2="673.242" gradientUnits="userSpaceOnUse">
<stop offset="0.307" stop-color="#1968F0"/>
<stop offset="0.6914" stop-color="#0C4EC0"/>
</linearGradient>
<linearGradient id="paint3_linear_10272_1586" x1="193.319" y1="396.678" x2="254.668" y2="435.076" gradientUnits="userSpaceOnUse">
<stop offset="0.3237" stop-color="#35DE90"/>
<stop offset="0.3845" stop-color="#32D48E"/>
<stop offset="0.4882" stop-color="#2BB98A"/>
<stop offset="0.6223" stop-color="#208D83"/>
<stop offset="0.7798" stop-color="#105078"/>
<stop offset="0.8589" stop-color="#072F73"/>
</linearGradient>
</defs>
</svg>
